X:243
T:Polska efter August Nyholm (SvL Hälsingland 243)
R:Polska
O:Delsbo, Hälsingland
S:August Nyholm
B:Svenska Låtar Hälsingland
M:3/4
L:1/8
K:D
A,2 a2 g/f/g/b/|af ab/a/|gf de/f/ ge/f/|ec Aa f/d/e/c/|
A,2 a2 g/f/g/b/|af ab/a/|gf de/f/ ge/f/|(f/d/)e/c/ d2 z2:|
|:DF A>G EG|FD FG/F/ EC/E/|A>B c>d ea/g/|ec/e/ dB/d/ cA/c/|
DF A>G EG|FD FG/F/ EC/E/|AB/c/ de/f/ ga/g/|(f/d/)e/c/ d2 D2:|

